assets/Woman deaf/Default/Flat/woman_deaf_flat_default.svg

<svg width="32" height="32" viewBox="0 0 32 32" fill="none" xmlns="http://www.w3.org/2000/svg">
<path d="M30 16.84L30 30H12.6168C13.4643 26.9987 15.0819 24.2411 17.3443 22.0188C20.7216 18.7014 25.2659 16.8418 30 16.84Z" fill="#00A6ED"/>
<path d="M21.75 10.5C23.2688 10.5 24.5 9.26878 24.5 7.75C24.5 6.23122 23.2688 5 21.75 5C20.2312 5 19 6.23122 19 7.75C19 9.26878 20.2312 10.5 21.75 10.5Z" fill="#FDBB11"/>
<path d="M30 12C28.3431 12 27 13.3795 27 15.0811V18.9189C27 20.6205 28.3431 22 30 22V12Z" fill="#FCB100"/>
<path d="M30 2H21.4447C21 2.5 20.9324 3.51497 21 4L21.49 13C21.7026 14.5632 22.474 15.9967 23.6615 17.0353C24.849 18.0739 26.9924 18.6475 28.57 18.65H30V14.4381L29.458 13.8052L30 13.1832V11.4699L29.3707 9.96393L30 7.07206V2Z" fill="#FFC83D"/>
<path d="M15.5004 9.81502C15.4534 9.38403 15.066 9.07271 14.635 9.11968C14.204 9.16664 13.8927 9.5541 13.9396 9.98509C14.1011 11.4671 14.7386 12.8569 15.7565 13.946C16.0525 14.2628 16.5492 14.2796 16.866 13.9836C17.1827 13.6876 17.1996 13.1908 16.9035 12.8741C16.1174 12.0329 15.6251 10.9596 15.5004 9.81502Z" fill="#9B9B9B"/>
<path d="M12.5128 9.86112C12.4802 9.4288 12.1034 9.10472 11.6711 9.13726C11.2387 9.1698 10.9147 9.54665 10.9472 9.97897C11.1205 12.2818 12.0923 14.4519 13.6947 16.1148C13.9956 16.4269 14.4925 16.4361 14.8047 16.1353C15.1169 15.8345 15.1261 15.3375 14.8252 15.0253C13.4765 13.6258 12.6587 11.7993 12.5128 9.86112Z" fill="#9B9B9B"/>
<path d="M26 5.65002C25.4776 5.65221 24.9709 5.82839 24.5598 6.15074C24.1487 6.47309 23.8567 6.92323 23.73 7.43002C23.7133 7.49804 23.7123 7.56899 23.7271 7.63746C23.7419 7.70592 23.7722 7.77009 23.8156 7.82507C23.859 7.88006 23.9144 7.9244 23.9776 7.95472C24.0407 7.98504 24.11 8.00053 24.18 8.00002H27.92C27.9772 7.99924 28.0335 7.98623 28.0852 7.96186C28.1368 7.93749 28.1827 7.90232 28.2197 7.85874C28.2566 7.81515 28.2838 7.76415 28.2994 7.70917C28.315 7.6542 28.3186 7.59652 28.31 7.54002C28.2017 7.00707 27.9127 6.52787 27.4917 6.18348C27.0708 5.8391 26.5439 5.65065 26 5.65002V5.65002Z" fill="white"/>
<path d="M26.3501 6.09998C25.9523 6.09998 25.5707 6.25801 25.2894 6.53932C25.0081 6.82062 24.8501 7.20215 24.8501 7.59998C24.8348 7.73287 24.8348 7.86708 24.8501 7.99998H27.7501C27.7821 7.86901 27.7989 7.73479 27.8001 7.59998C27.8003 7.21066 27.6492 6.83652 27.3786 6.55661C27.108 6.2767 26.7392 6.11295 26.3501 6.09998Z" fill="#7D4533"/>
<path d="M27.21 7.59999C27.21 7.3719 27.1194 7.15316 26.9581 6.99188C26.7968 6.8306 26.5781 6.73999 26.35 6.73999C26.1219 6.73999 25.9032 6.8306 25.7419 6.99188C25.5806 7.15316 25.49 7.3719 25.49 7.59999C25.4923 7.73922 25.5265 7.87606 25.59 7.99999H27.11C27.1735 7.87606 27.2077 7.73922 27.21 7.59999V7.59999Z" fill="black"/>
<path d="M25.8401 7.27999C25.9892 7.27999 26.1101 7.15911 26.1101 7.00999C26.1101 6.86087 25.9892 6.73999 25.8401 6.73999C25.691 6.73999 25.5701 6.86087 25.5701 7.00999C25.5701 7.15911 25.691 7.27999 25.8401 7.27999Z" fill="white"/>
<path d="M26.7291 3.50801C25.8632 3.39939 24.9874 3.60896 24.2645 4.09774C24.0403 4.24932 23.7357 4.19046 23.5841 3.96628C23.4325 3.7421 23.4914 3.43748 23.7156 3.2859C24.6353 2.66406 25.7495 2.39744 26.851 2.53563C27.1196 2.56931 27.3099 2.8143 27.2762 3.08281C27.2426 3.35133 26.9976 3.54169 26.7291 3.50801Z" fill="#D37034"/>
<path d="M29.9999 7.00659C29.8951 7.02202 29.795 7.06428 29.709 7.13023C29.5986 7.21482 29.5171 7.33396 29.4762 7.47025L28.6289 10.3225C28.5895 10.4588 28.5811 10.6029 28.6046 10.7432C28.628 10.8834 28.6826 11.0161 28.764 11.1305C28.8453 11.2449 28.9512 11.3378 29.0732 11.402C29.1952 11.4661 29.3299 11.4997 29.4665 11.4999H29.9999V7.00659Z" fill="#ED9200"/>
<path d="M30 13.1271C29.9168 13.1309 29.8335 13.1325 29.75 13.132C28.9252 13.1384 28.1112 12.9311 27.378 12.5279C27.3271 12.5017 27.2696 12.4937 27.2141 12.505C27.1586 12.5163 27.108 12.5464 27.0697 12.5907C27.0314 12.6351 27.0075 12.6914 27.0015 12.7513C26.9955 12.8113 27.0077 12.8717 27.0363 12.9237C27.3293 13.4074 27.7311 13.805 28.2051 14.0804C28.6792 14.3557 29.2103 14.5 29.75 14.5C29.8336 14.5 29.917 14.4965 30 14.4897V13.1271Z" fill="#990839"/>
<path d="M20.6107 14.607C20.9638 13.8576 21.8575 13.5363 22.6069 13.8894C23.3563 14.2425 23.6776 15.1363 23.3245 15.8857L21.1933 20.4087C20.8402 21.1581 19.9465 21.4794 19.1971 21.1263C18.4477 20.7732 18.1264 19.8795 18.4795 19.13L20.6107 14.607Z" fill="#F59F00"/>
<path d="M20 17.5C19.6239 17.3746 19.2321 17.3597 18.8482 17.4313C18.0089 17.0893 17.0616 17.3194 16.3032 17.8409C14.8355 17.6715 13.935 18.6951 13.5 20L12 25L15.5852 26C15.6111 25.9377 15.6356 25.8748 15.6586 25.8114L18.5 27C18.8333 26.3333 19.688 24.96 20.44 24.8L21.28 24.49C22.0425 24.1894 22.659 23.6052 23 22.86L23.79 21.08C23.8608 20.9185 23.8977 20.7442 23.8985 20.5679C23.8993 20.3915 23.8639 20.2169 23.7946 20.0548C23.7252 19.8926 23.6234 19.7465 23.4953 19.6252C23.3673 19.504 23.2157 19.4103 23.05 19.35C22.7335 19.2349 22.3851 19.2442 22.0751 19.3759C21.9962 19.4095 21.9213 19.4503 21.8512 19.4977C21.7199 18.6988 21.2313 17.9105 20 17.5Z" fill="#FFC83D"/>
<path d="M18.6473 26.3416L12.707 23.703C12.4546 23.5909 12.1591 23.7046 12.047 23.9569L11.43 25.3461C11.3179 25.5984 11.4316 25.8939 11.684 26.006L17.6243 28.6446C17.8767 28.7567 18.1722 28.643 18.2843 28.3906L18.9013 27.0015C19.0134 26.7491 18.8997 26.4537 18.6473 26.3416Z" fill="#0092E7"/>
<path d="M18.8737 30H8.04272L9.80211 25.9442C9.97174 25.5592 10.2844 25.2581 10.6719 25.1066C11.0593 24.9551 11.4901 24.9654 11.87 25.1354L18.0738 27.9082C18.4509 28.0827 18.7456 28.4005 18.8944 28.7933C19.0422 29.1831 19.0346 29.6159 18.8737 30Z" fill="#3BC6F6"/>
<path d="M19.5 2L20.28 6.25C20.3271 6.48697 20.4503 6.70209 20.6307 6.86272C20.8112 7.02334 21.0392 7.1207 21.28 7.14C21.28 7.14 21.18 5.7 21.12 4.77C21.1057 4.53432 21.145 4.29846 21.2351 4.0802C21.3252 3.86194 21.4636 3.66698 21.64 3.51L21.94 3.24C22.3064 2.92166 22.5445 2.48094 22.61 2H19.5Z" fill="#F1A11E"/>
<path d="M19.4719 23.0179C19.3449 23.0937 19.2084 23.1561 19.0667 23.2018C18.5029 23.3833 17.8245 23.31 17.272 22.7476C17.1819 22.6626 17.106 22.564 17.0468 22.4557C16.8802 22.5768 16.6912 22.6741 16.492 22.7382C15.9283 22.9197 15.2499 22.8465 14.6974 22.2841C14.572 22.1658 14.4741 22.0213 14.4107 21.8609C14.3465 21.6987 14.3192 21.5242 14.3307 21.3501C14.3419 21.1804 14.3897 21.0151 14.4709 20.8656L14.8461 20.0046C14.9012 19.878 15.0486 19.8201 15.1751 19.8753C15.3017 19.9304 15.3596 20.0777 15.3045 20.2043L14.9198 21.0871L14.9138 21.0977C14.865 21.1854 14.8362 21.2828 14.8296 21.383C14.823 21.4832 14.8387 21.5836 14.8756 21.677C14.9125 21.7704 14.9697 21.8543 15.043 21.9228L15.0513 21.9305C15.4556 22.3441 15.9308 22.3937 16.3388 22.2623C16.7653 22.125 17.0861 21.8015 17.1714 21.5139L17.1784 21.4903L17.1899 21.4684C17.3689 21.1288 17.4973 20.4357 17.3867 19.7666C17.2773 19.1054 16.9491 18.5344 16.2815 18.3233C16.1498 18.2817 16.0769 18.1412 16.1185 18.0096C16.1601 17.8779 16.3006 17.805 16.4322 17.8466C17.346 18.1355 17.7533 18.919 17.88 19.685C18.0034 20.4313 17.8744 21.2247 17.6434 21.68C17.5973 21.8239 17.5218 21.9627 17.424 22.091C17.4343 22.1061 17.4432 22.1227 17.4503 22.1405C17.4872 22.2339 17.5444 22.3178 17.6176 22.3863L17.6259 22.394C18.0302 22.8076 18.5054 22.8572 18.9134 22.7258C19.3399 22.5885 19.6608 22.265 19.746 21.9774L19.753 21.9538L19.7645 21.9319C19.9464 21.5869 20.1379 20.7832 20.026 19.9463C19.9159 19.1222 19.5181 18.3011 18.5608 17.847C18.436 17.7878 18.3829 17.6387 18.442 17.5139C18.4833 17.427 18.5682 17.3749 18.6581 17.3712C18.6821 17.3635 18.7078 17.3594 18.7344 17.3594C19.709 17.3594 20.4288 17.5802 20.9452 17.9492C21.4632 18.3193 21.7534 18.822 21.8973 19.3415C22.0402 19.8577 22.0401 20.3934 21.9794 20.8483C21.919 21.3008 21.7959 21.6937 21.6752 21.9272C21.5092 22.2486 21.1899 22.5668 20.8139 22.7826C20.437 22.999 19.9694 23.1314 19.5061 23.0281C19.4943 23.0254 19.4829 23.022 19.4719 23.0179ZM19.5664 17.9274C20.1551 18.4767 20.4298 19.1931 20.5216 19.8801C20.6438 20.7944 20.4483 21.6903 20.218 22.1436C20.1722 22.2864 20.0975 22.4243 20.0007 22.5517C20.1905 22.5248 20.3831 22.4534 20.5649 22.349C20.8734 22.172 21.1168 21.9188 21.231 21.6978C21.3188 21.5278 21.4289 21.1935 21.4838 20.7822C21.5383 20.3733 21.5356 19.9087 21.4154 19.475C21.2962 19.0446 21.0629 18.6478 20.6545 18.356C20.3859 18.1641 20.0318 18.0106 19.5664 17.9274Z" fill="#D67D00"/>
</svg>

<svg xmlns="http://www.w3.org/2000/svg" width="32" height="32" fill="none"><path fill="#00A6ED" d="M30 16.84V30H12.617A18.07 18.07 0 0 1 30 16.84Z"/><path fill="#FDBB11" d="M21.75 10.5a2.75 2.75 0 1 0 0-5.5 2.75 2.75 0 0 0 0 5.5Z"/><path fill="#FCB100" d="M30 12c-1.657 0-3 1.38-3 3.081v3.838C27 20.62 28.343 22 30 22V12Z"/><path fill="#FFC83D" d="M30 2h-8.555C21 2.5 20.932 3.515 21 4l.49 9a6.53 6.53 0 0 0 2.172 4.035c1.187 1.039 3.33 1.613 4.908 1.615H30v-4.212l-.542-.633.542-.622V11.47l-.63-1.506.63-2.892V2Z"/><path fill="#9B9B9B" d="M15.5 9.815a.785.785 0 0 0-1.56.17 6.895 6.895 0 0 0 1.817 3.961.785.785 0 1 0 1.147-1.072A5.325 5.325 0 0 1 15.5 9.815ZM12.513 9.861a.785.785 0 0 0-1.566.118 9.915 9.915 0 0 0 2.748 6.136.785.785 0 0 0 1.13-1.09 8.345 8.345 0 0 1-2.312-5.164Z"/><path fill="#fff" d="M26 5.65a2.35 2.35 0 0 0-2.27 1.78.461.461 0 0 0 .45.57h3.74a.4.4 0 0 0 .39-.46A2.36 2.36 0 0 0 26 5.65Z"/><path fill="#7D4533" d="M26.35 6.1a1.5 1.5 0 0 0-1.5 1.5 1.749 1.749 0 0 0 0 .4h2.9c.032-.131.049-.265.05-.4a1.5 1.5 0 0 0-1.45-1.5Z"/><path fill="#000" d="M27.21 7.6a.86.86 0 1 0-1.62.4h1.52a.91.91 0 0 0 .1-.4Z"/><path fill="#fff" d="M25.84 7.28a.27.27 0 1 0 0-.54.27.27 0 0 0 0 .54Z"/><path fill="#D37034" d="M26.73 3.508a3.6 3.6 0 0 0-2.465.59.49.49 0 0 1-.55-.812 4.58 4.58 0 0 1 3.136-.75.49.49 0 1 1-.122.972Z"/><path fill="#ED9200" d="M30 7.007a.629.629 0 0 0-.291.123.67.67 0 0 0-.233.34l-.847 2.853a.951.951 0 0 0 .135.807.886.886 0 0 0 .31.272.848.848 0 0 0 .392.098H30V7.007Z"/><path fill="#990839" d="M30 13.127a4.842 4.842 0 0 1-.25.005 4.839 4.839 0 0 1-2.372-.604.249.249 0 0 0-.164-.023.26.26 0 0 0-.144.086.297.297 0 0 0-.033.333c.292.483.694.881 1.168 1.156a3.073 3.073 0 0 0 1.795.41v-1.363Z"/><path fill="#F59F00" d="M20.61 14.607a1.5 1.5 0 1 1 2.715 1.279l-2.132 4.523a1.5 1.5 0 1 1-2.713-1.279l2.13-4.523Z"/><path fill="#FFC83D" d="M20 17.5a2.288 2.288 0 0 0-1.152-.069c-.84-.342-1.786-.112-2.545.41-1.468-.17-2.368.854-2.803 2.159L12 25l3.585 1c.026-.062.05-.125.074-.189L18.5 27c.333-.667 1.188-2.04 1.94-2.2l.84-.31A3.17 3.17 0 0 0 23 22.86l.79-1.78a1.29 1.29 0 0 0-.74-1.73 1.33 1.33 0 0 0-1.199.148c-.131-.8-.62-1.588-1.851-1.998Z"/><path fill="#0092E7" d="m18.647 26.342-5.94-2.639a.5.5 0 0 0-.66.254l-.617 1.39a.5.5 0 0 0 .254.659l5.94 2.639a.5.5 0 0 0 .66-.254l.617-1.39a.5.5 0 0 0-.254-.66Z"/><path fill="#3BC6F6" d="M18.874 30H8.043l1.76-4.056c.169-.385.481-.686.869-.837a1.549 1.549 0 0 1 1.198.028l6.204 2.773c.377.175.672.492.82.885.148.39.14.823-.02 1.207Z"/><path fill="#F1A11E" d="m19.5 2 .78 4.25a1.11 1.11 0 0 0 1 .89s-.1-1.44-.16-2.37a1.56 1.56 0 0 1 .52-1.26l.3-.27A2 2 0 0 0 22.61 2H19.5Z"/><path fill="#D67D00" d="M19.472 23.018a1.977 1.977 0 0 1-.405.184 1.707 1.707 0 0 1-1.795-.454 1.178 1.178 0 0 1-.225-.292 1.982 1.982 0 0 1-.555.282 1.707 1.707 0 0 1-1.795-.454 1.176 1.176 0 0 1-.226-1.418l.375-.861a.25.25 0 1 1 .459.2l-.385.882-.006.01a.678.678 0 0 0 .129.826l.008.008c.405.413.88.463 1.288.331.426-.137.747-.46.832-.748l.007-.024.012-.022c.179-.34.307-1.032.197-1.701-.11-.662-.438-1.233-1.105-1.444a.25.25 0 1 1 .15-.476c.914.288 1.321 1.072 1.448 1.838.123.746-.006 1.54-.237 1.995a1.376 1.376 0 0 1-.219.411c.01.015.02.032.026.05a.678.678 0 0 0 .168.245l.008.008c.404.414.88.463 1.287.332.427-.137.748-.461.833-.749l.007-.023.012-.022c.181-.345.373-1.149.261-1.986-.11-.824-.508-1.645-1.465-2.099a.25.25 0 0 1 .097-.476.25.25 0 0 1 .076-.012c.975 0 1.695.221 2.211.59.518.37.808.873.952 1.392.143.517.143 1.052.082 1.507-.06.453-.183.846-.304 1.08-.166.32-.485.639-.861.855-.377.216-.845.348-1.308.245a.27.27 0 0 1-.034-.01Zm.094-5.09c.59.549.864 1.265.956 1.952.122.914-.074 1.81-.304 2.264-.046.142-.12.28-.217.408.19-.027.382-.099.564-.203.308-.177.552-.43.666-.651.088-.17.198-.505.253-.916a3.33 3.33 0 0 0-.069-1.307 1.983 1.983 0 0 0-.76-1.119c-.27-.192-.623-.345-1.089-.429Z"/></svg>
